packages/core/src/svgs/dka.svg

<svg width="24" height="24" viewBox="0 0 24 24" fill="none" xmlns="http://www.w3.org/2000/svg">
<g clip-path="url(#clip0_31_9243)">
<path d="M0 0H24V24H0V0Z" fill="#1FC0DC"/>
<path d="M17.8672 14.1427H14.7558C13.303 14.1341 13.4058 13.9541 12.6258 13.1999C11.8834 12.4669 11.1217 11.7538 10.3415 11.0613C9.88725 10.6713 8.6401 10.7141 8.6401 10.7141H6.48868V17.5713H9.06439C9.63868 17.5713 10.423 16.8856 10.423 16.8856L12.4201 14.7727L13.1015 15.4927C13.1015 15.4927 11.6101 17.087 11.0058 17.6784C10.183 18.4884 9.06439 18.4284 9.06439 18.4284H5.57153V9.857H8.6401C10.4444 9.857 10.9672 10.3841 10.9672 10.3841C10.9672 10.3841 13.2815 12.5913 13.6801 12.9384C14.2244 13.3756 14.9358 13.2856 14.9358 13.2856H17.5115V6.42843H15.3601C15.2915 6.42843 14.6958 6.39843 14.0958 6.74129C13.6587 6.917 11.6787 9.07272 11.6787 9.07272L10.963 8.41272C10.963 8.41272 12.5572 6.737 12.8787 6.42843C13.2001 6.11986 13.7787 5.57129 15.3601 5.57129H18.4287V14.1427H17.8715H17.8672Z" fill="white"/>
</g>
<defs>
<clipPath id="clip0_31_9243">
<rect width="24" height="24" fill="white"/>
</clipPath>
</defs>
</svg>

<svg xmlns="http://www.w3.org/2000/svg" width="24" height="24" fill="none" viewBox="0 0 24 24"><g clip-path="url(#a)"><path fill="#1FC0DC" d="M0 0h24v24H0z"/><path fill="#fff" d="M17.867 14.143h-3.111c-1.453-.009-1.35-.189-2.13-.943a59 59 0 0 0-2.284-2.139c-.455-.39-1.702-.347-1.702-.347H6.49v6.857h2.575c.575 0 1.359-.685 1.359-.685l1.997-2.113.681.72s-1.49 1.594-2.095 2.185c-.823.81-1.942.75-1.942.75H5.572V9.857H8.64c1.804 0 2.327.527 2.327.527s2.314 2.207 2.713 2.554c.544.438 1.256.348 1.256.348h2.576V6.428H15.36c-.069 0-.664-.03-1.264.313-.437.176-2.417 2.332-2.417 2.332l-.716-.66s1.594-1.676 1.916-1.985c.321-.308.9-.857 2.481-.857h3.069v8.572h-.562"/></g><defs><clipPath id="a"><path fill="#fff" d="M0 0h24v24H0z"/></clipPath></defs></svg>
